X: 62
T:Killoran's Fancy
R:Reel
Z: a variation of the Shaskeen
M:4/4
L:1/8
K:G
|:B2BG A2Bc|dedB cBA2|B2BG A2BA|GBAG FED2|
B2BG A2Bc|dedB cBA2|defe dcBA|GBAF G2D2:|
|:dggf g2fg|a2ag fed2|B2BG A2BA|GBAG FED2|
dggf g2fg|a2ag fed2|defe dcBA|GBAF G2D2:|
